X:1
T:Cancan
T:CANCAN
T:Orphée aux Enfers
T:Jacques Offenbach (1819—1880)
T:arr. Gabriel J. Young
C:Jacques Offenbach
%%score { ( 1 3 ) | 2 }
L:1/8
M:1/2
K:D
V:1 treble+8 nm="Фортепиано" snm="Ф-но"
V:3 treble+8 
V:2 treble 
V:1
!mp! z2 z[Q:1/4=160]"^Allegro""^liberamente, lasciare suonare" (f/=f/ | e) z2 z | %2
 .[^Gd] z .[EG] z | .[EA].e z2 | z2 z (f/=f/ | e) z2 z | .[^Gd] z .[DG] z | .[CA] z2 z | %8
[K:treble] .[A,A] z2 z |{/b} .a2 z2 |{/B} .A2 z2 |{/b} .a2 z2 |{/B} .A2{/B} .A2 |{/B} .A2{/B} .A2 | %14
"_ritardando subito"{/b} .a2[Q:1/4=120]{/b} .a2 |[Q:1/4=70]{/b} .a2{/b} .a2 |: %16
!mf!"^a tempo, più mosso"[Q:1/4=160] A!<(!eef |{/f} edd!<)!!f!f | gbd'b | (ba) a2 | bccb | %21
{/b} addf |1!>(!{/^g} fe{/g}fe!>)! |{/^g} fe{/g}fe :|2{/^g} .f.e{/g}.f.e || .[Fe].[Fd] !>![Fd]2 |: %26
[K:treble]!ff! !>![ff']2 !>![dd']2 | !>![Bb]2 !>![Aa]2 |!f! ([Aa][Ae][Af][Ag] | [Af][Ae] [Ad]2) | %30
!ff! !>![ff']2 !>![dd']2 | !>![Bb]2 !>![Aa]2 |[K:treble+8]!f! [E^G][EA][EB][Ec] |1 %33
 [Fe][Fd] [Fd]2 :|2 [Fd]A[Gc]A ||"_cresc." [Fd]A[Gc]A | [Fd]A[Gc]A |!ff! [Dd]>[Dd][Dd]>[Dd] | %38
 [Dd]>[Dd][Dd]>[Dd] |[K:treble] !>![Dd]>!>![Dd]!>![Dd]>!>![Dd] | z4 |:"^2nd time f"!mf! !>!G4 | %42
 A=cBA | !>!d2 !>!d2 | deB=c | !>!A2 !>!A2 | A=cBA | G.g.f.e | .d.=c.B.A | !>!G4 | A=cBA | %51
 !>!d2 !>!d2 | deB=c | A2 A2 | A=cBA | GdAB |1 !>!G2 !tenuto!D2 :|2 z2 !>![GBg] z || %58
!mf! A!<(!eef!<)! |!f!{/f} eddf | gbd'b | (ba) a2 | bccb |{/b} addf |!>(!{/^g} fe{/g}fe!>)! | %65
{/^g} fe{/g}fe |!<(! Aeef!<)! |{/f} eddf | gbd'b | (ba) a2 |"_cresc." (ba) a2 | (ba) a2 | (ba) a2 | %73
 (ba) a2 |"_cresc." (ba) a2 | (ba) a2 | (ba) a2 | baba | baba | !>!b!>!a!>!b!>!a |: %80
[K:treble+8]!ff! !>![DFAd]4 | [Ee][Gg][Ff][Ee] | !>![Adfa]2 !>![Adfa]2 | [Aa][Bb][Ff][Gg] | %84
 !>![Ece]2 !>![Ece]2 | [Ee][Gg][Ff][Ee] | [Dd].[dd'].[cc'].[Bb] | .[Aa].[Gg].[Ff].[Ee] | %88
 !>![DFAd]4 | [Ee][Gg][Ff][Ee] | !>![Adfa]2 !>![Adfa]2 | [Aa][Bb][Ff][Gg] | !>![Ece]2 !>![Ece]2 | %93
 [Ee][Gg][Ff][Ee] | [Dd][Aa][Ee][Ff] |1 [Dd]2 [A,A]2 :|2 [Dd]2 !>![Dd]2 || !>![Ee]2 !>![Ff]2 | %98
 (AG)cB | AGFE | D2 !>![Dd]2 | !>![Ee]2 !>![Ff]2 | (AG)cB | AGFE | %104
 D"^velocissimo al fine"(^G/A/B/A/G/A/) | (B/A/^G/A/B/A/G/A/) | (B/A/^G/A/B/A/G/A/) | %107
 (B/A/^G/A/B/A/G/A/) | d(^g/a/b/a/g/a/) | (b/a/^g/a/b/a/g/a/) | ((b/a/^g/a/b/a/g/a/)) | %111
 (b/a/^g/a/)(g/a/b/c'/ |[K:treble+15] d/)D/d/D/d/D/d/D/ | d/D/d/D/d/D/d/D/ | d/D/d/D/d/D/d/D/ | %115
 d/D/d/D/d/D/d/D/ | d/D/d/D/d/D/d/D/ | d/D/d/D/d/D/d/D/ | d/D/d/D/d/D/d/D/ | d/D/d/D/d/D/d/D/ | %120
[K:treble] !>![Adf]>[Adf][Adf]>[Adf] | [Adf]>[Adf][Adf]>[Adf] | !>![Adf]2 z2 | %123
!8va(! !>![ad'f']2 z2 | !>![dfad']2!8va)! z2 | !>![DFAd]2 z2 | %126
"^impazzire"!ped! !///-![Adf]2[K:bass] [D,F,A,D]2 | x4 |[K:treble] !>!!fermata![Adf]4 |] %129
V:2
 z2 z (F/=F/ | E) z2 z | .[EB] z .[Ed] z | .[Ac].[Ac] z2 | z2 z (F/=F/ | E) z2 z | %6
 .[EB] z .[EB] z | .A z2 z | z4 | z4 | z4 | z4 | z4 | z4 | z4 | z4 |: %16
[K:bass] !tenuto!A,,[G,A,C][G,A,C][G,A,C] | !tenuto!D,[F,A,D][F,A,D][F,A,D] | %18
 !tenuto!G,[G,B,D][G,B,D][G,B,D] | !tenuto!D,[F,A,D][F,A,D][F,A,D] | %20
 !tenuto!A,,[G,A,][G,A,][G,A,] | !tenuto!D,[F,A,D][F,A,D][F,A,D] |1 %22
 !tenuto!E,[^G,B,D][G,B,D][G,B,D] | !tenuto!A,[A,C=G][A,CG][A,CG] :|2 %24
 !tenuto!A,,[G,A,C][G,A,C][G,A,C] || .[D,A,].[D,A,] !>![D,A,]2 |: %26
[K:bass] !tenuto![F,F]2 !tenuto![D,D]2 | !tenuto![B,,B,]2 !tenuto![A,,A,]2 | %28
 !tenuto!A,,[G,A,C][G,A,C][G,A,C] | [DF][DF] [DF]2 | !tenuto![F,F]2 !tenuto![D,D]2 | %31
 !tenuto![B,,B,]2 !tenuto![A,,A,]2 |[K:bass+8] [A,,E,G,][A,,E,G,][A,,E,G,][A,,E,G,] |1 %33
 [A,,D,F,][A,,D,F,] [A,,D,F,]2 :|2[K:bass] [D,F,A,]2 [A,,E,G,]2 || [D,F,A,]2 [A,,E,G,]2 | %36
 [D,F,A,]2 [A,,E,G,]2 | [D,D]>[D,D][D,D]>[D,D] | [D,D]>[D,D][D,D]>[D,D] | %39
[K:bass] !>![D,,D,]>!>![D,,D,]!>![D,,D,]>!>![D,,D,] | !>![D,D]!>![=C,=C]!>![B,,B,]!>![A,,A,] |: %41
 !>!G,, z D, z | F,[A,=C]D,[A,C] | G,[B,D]D,[B,D] | G,[B,D]D,[B,D] | F,[A,=C]D,[A,C] | %46
 F,[A,=C]D,[A,C] | G,[B,D]D,[B,D] | [D,D][=C,=C][B,,B,][A,,A,] | !>!G,, z D, z | F,[A,=C]D,[A,C] | %51
 G,[B,D]D,[B,D] | G,[B,D]D,[B,D] | F,[A,=C]D,[A,C] | F,[A,=C]D,[A,C] | G,[B,D]D,[B,D] |1 %56
 [D,G,B,D]2 z2 :|2 [D,G,B,D]2 !>![G,,G,] z || !tenuto!A,,[G,A,C][G,A,C][G,A,C] | %59
 !tenuto!D,[F,A,D][F,A,D][F,A,D] | !tenuto!G,[G,B,D][G,B,D][G,B,D] | %61
 !tenuto!D,[F,A,D][F,A,D][F,A,D] | !tenuto!A,,[G,A,C][G,A,C][G,A,C] | %63
 !tenuto!D,[F,A,D][F,A,D][F,A,D] | !tenuto!E,[^G,B,D][G,B,D][G,B,D] | %65
 !tenuto!A,[A,C=G][A,CG][A,CG] | !tenuto!A,,[G,A,C][G,A,C][G,A,C] | %67
 !tenuto!D,[F,A,D][F,A,D][F,A,D] | !tenuto!G,[G,B,D][G,B,D][G,B,D] | %69
 !tenuto!D,[F,A,D][F,A,D][F,A,D] | [A,CE][A,CE][A,CE][A,CE] | [A,D=F][A,DF][A,DF][A,DF] | %72
 [A,^D^F][A,DF][A,DF][A,DF] | [A,EG][A,EG][A,EG][A,EG] | [A,CE][A,CE][A,CE][A,CE] | %75
 [A,D=F][A,DF][A,DF][A,DF] | [A,^D^F][A,DF][A,DF][A,DF] | [A,EG][A,EG][A,EG][A,EG] | %78
 !>![E,E]!>![D,D]!>![C,C]!>![B,,B,] | !>![A,,A,]!>![G,,G,]!>![F,,F,]!>![E,,E,] |: %80
[K:bass] D,[F,A,D]A,,[F,A,D] | [A,,A,][C,G,A,][C,G,A,][C,G,A,] | D,[F,A,D]A,,[F,A,D] | %83
 D,[F,A,D]A,,[F,A,D] | A,,[G,A,]E,[G,A,] | A,,[G,A,]E,[G,A,] | D,[F,A,D]A,,[F,A,D] | %87
 A,,[G,A,]E,[G,A,] | D,[F,A,D]A,,[F,A,D] | [A,,A,][C,G,A,][C,G,A,][C,G,A,] | D,[F,A,D]A,,[F,A,D] | %91
 D,[F,A,D]A,,[F,A,D] | A,,[G,A,]E,[G,A,] | A,,[G,A,]E,[G,A,] | D,[F,A,D]A,,[G,A,] |1 %95
 [D,F,A,]2 [A,,,A,,]2 :|2 [D,F,A,]2 [D,F,A,]2 || [C,F,A,]2 [=C,F,A,]2 | [B,,D,G,]2 [E,G,B,]2 | %99
 [A,,C,G,]2 [A,,C,G,]2 | [D,F,A,]2 [D,F,A,]2 | [C,F,A,]2 [=C,F,A,]2 | [B,,D,G,]2 [E,G,B,]2 | %103
 [A,,C,G,]2 [A,,C,G,]2 | [D,F,]A,[C,E,]A, | [D,F,]A,[C,E,]A, | [D,F,]A,[C,E,]A, | %107
 [D,F,]A,[C,E,]A, | [D,F,]A,[C,E,]A, | [D,F,]A,[C,E,]A, | [D,F,]A,[C,E,]A, | [D,F,]A,[C,E,] z | %112
 !>![D,,D,]2 !>![D,D]2 | !>![C,C]2 !>![B,,B,]2 | !>![A,,A,]2 !>![G,,G,]2 | %115
 !>![F,,F,]2 !>![E,,E,]2 | !>![D,,D,]2 !>![D,D]2 | !>![C,C]2 !>![B,,B,]2 | %118
 !>![A,,A,]2 !>![G,,G,]2 | !>![F,,F,]2 !>![E,,E,]2 | !>![D,,D,] z[K:bass] [D,F,A,]2 | %121
 [D,F,A,]2 [D,F,A,]2 | [D,F,A,]2 z2 |!8va(! [DFA]2!8va)! z2 | [A,DF]2 z2 | [F,A,D]2 z2 |!fff! z4 | %127
 z4 | !>![D,F,A,D]4 |] %129
V:3
 x4 | x4 | x4 | x4 | x4 | x4 | x4 | x4 |[K:treble] x4 | x4 | x4 | x4 | x4 | x4 | x4 | x4 |: x4 | %17
 x4 | x4 | x4 | x4 | x4 |1 x4 | x4 :|2 x4 || x4 |:[K:treble] x4 | x4 | x4 | x4 | x4 | x4 | %32
[K:treble+8] x4 |1 x4 :|2 x4 || x4 | x4 | x4 | x4 |[K:treble] x4 | x4 |: z [G,B,D] z [G,B,D] | x4 | %43
 x4 | x4 | x4 | x4 | x4 | x4 | z [G,B,D] z [G,B,D] | x4 | x4 | x4 | x4 | x4 | x4 |1 x4 :|2 G3 z || %58
 x4 | x4 | x4 | x4 | x4 | x4 | x4 | x4 | x4 | x4 | x4 | x4 | x4 | x4 | x4 | x4 | x4 | x4 | x4 | %77
 x4 | x4 | x4 |:[K:treble+8] x4 | x4 | x4 | x4 | x4 | x4 | x4 | x4 | x4 | x4 | x4 | x4 | x4 | x4 | %94
 x4 |1 x4 :|2 x4 || x4 | x4 | x4 | x4 | x4 | x4 | x4 | x4 | x4 | x4 | x4 | x4 | x4 | x4 | x4 | %112
[K:treble+15] x4 | x4 | x4 | x4 | x4 | x4 | x4 | x4 |[K:treble] x4 | x4 | x4 |!8va(! x4 | %124
 x2!8va)! x2 | x4 | x2[K:bass] x2 | x4 |[K:treble] x4 |] %129

